X:238
M:C|
L:1/8
K:G
|:ag|fadf a2 gf|gbdg b2 ag|fadf a2 gf|gbdg b2 Bc|dgfe dcBA|GBDG B2 AG|

